client/public/img/game/fall/residues/vibrant_bush_residue.svg

<?xml version="1.0" encoding="UTF-8" standalone="no"?>
<svg
   version="1.1"
   width="100"
   height="100"
   viewBox="0 0 100 100"
   xml:space="preserve"
   id="svg218"
   xmlns="http://www.w3.org/2000/svg"
   xmlns:svg="http://www.w3.org/2000/svg">
<desc
   id="desc181">Created with Fabric.js 5.3.0</desc>
<defs
   id="defs183" />

<path
   id="path542-2-2"
   style="fill:#6d6902;fill-opacity:0.9254902;stroke:none;stroke-width:0;stroke-linejoin:round;stroke-dasharray:none"
   d="M 73.854704,42.529802 C 69.935918,42.218398 67.256113,36.653131 69.486,33.269703 73.324975,27.444899 88.608301,23.521287 90.531608,28.691118 92.454915,33.860747 80.522249,43.059933 73.854704,42.529802 Z" /><path
   id="path542-6"
   style="fill:#77781f;fill-opacity:0.9254902;stroke:none;stroke-width:0;stroke-linejoin:round;stroke-dasharray:none"
   d="M 75.823042,40.451095 C 70.677939,43.321681 60.891127,39.083048 59.648526,33.32358 57.509307,23.408708 75.9312,8.3386803 79.957741,10.663455 c 4.026541,2.324776 4.619395,24.903481 -4.134699,29.78764 z" /><path
   id="path542-0-2"
   style="fill:#9b9929;fill-opacity:0.9254902;stroke:none;stroke-width:0;stroke-linejoin:round;stroke-dasharray:none"
   d="m 68.053822,31.308802 c 0.434438,3.602758 -4.041417,6.792388 -7.464047,5.225517 -5.892353,-2.697495 -10.067459,-17.406864 -7.908538,-18.499694 2.158921,-1.09303 14.633378,7.144201 15.372585,13.274177 z" /><path
   id="path542-2-2-8"
   style="fill:#6d6902;fill-opacity:0.9254902;stroke:none;stroke-width:0;stroke-linejoin:round;stroke-dasharray:none"
   d="m 32.73203,60.849794 c 3.106026,2.409659 2.294543,8.532979 -1.425697,10.139153 -6.40471,2.765097 -21.3362605,-2.336233 -20.109087,-7.713993 1.227063,-5.377592 16.250257,-6.525279 21.534784,-2.42516 z" /><path
   id="path542-6-4"
   style="fill:#77781f;fill-opacity:0.9254902;stroke:none;stroke-width:0;stroke-linejoin:round;stroke-dasharray:none"
   d="m 29.946069,61.508431 c 5.876621,0.421514 11.735483,9.333385 9.615727,14.830853 -3.649062,9.463894 -27.318307,11.961637 -29.410197,7.809335 -2.0918907,-4.152302 9.795728,-23.357351 19.79447,-22.640188 z" /><path
   id="path542-0-2-0"
   style="fill:#9b9929;fill-opacity:0.9254902;stroke:none;stroke-width:0;stroke-linejoin:round;stroke-dasharray:none"
   d="m 31.428432,73.414097 c 1.612674,-3.250829 7.104662,-3.463143 9.107248,-0.275804 3.447628,5.487272 -1.128618,20.076824 -3.533234,19.806562 -2.404725,-0.270094 -8.317904,-13.999564 -5.574014,-19.530758 z" /><path
   id="path542-6-8"
   style="fill:#77781f;fill-opacity:0.9254902;stroke:none;stroke-width:0;stroke-linejoin:round;stroke-dasharray:none"
   d="M 56.271107,76.60061 C 54.42773,69.42239 62.650196,58.809757 70.008256,59.099653 82.675119,59.598593 95.070173,86.802718 90.984773,90.98686 86.899372,95.171001 59.407533,88.813941 56.271107,76.60061 Z" /><path
   id="path542-0-2-4"
   style="fill:#9b9929;fill-opacity:0.9254902;stroke:none;stroke-width:0;stroke-linejoin:round;stroke-dasharray:none"
   d="m 69.785127,69.987574 c -4.49425,-0.59969 -6.935205,-7.061346 -3.95742,-10.746269 5.126504,-6.343915 24.235505,-6.825649 24.873934,-3.848643 0.638672,2.977069 -13.269683,15.615234 -20.916514,14.594912 z" /><path
   id="path542-6-8-6"
   style="fill:#77781f;fill-opacity:0.9254902;stroke:none;stroke-width:0;stroke-linejoin:round;stroke-dasharray:none"
   d="M 43.494453,23.920493 C 45.046304,31.16733 36.401771,41.439086 29.061432,40.85214 16.42507,39.84183 5.1392618,12.159122 9.3903779,8.1434588 13.641494,4.1277957 40.854042,11.590415 43.494453,23.920493 Z" /><path
   id="path542-0-2-4-4"
   style="fill:#9b9929;fill-opacity:0.9254902;stroke:none;stroke-width:0;stroke-linejoin:round;stroke-dasharray:none"
   d="m 29.724282,29.982125 c 4.466351,0.780781 6.644244,7.335782 3.520008,10.897385 C 27.86566,47.01112 8.7527989,46.720402 8.2351707,43.720032 7.717302,40.719589 22.124919,28.653682 29.724282,29.982125 Z" /></svg>

<svg xmlns="http://www.w3.org/2000/svg" xml:space="preserve" width="100" height="100"><path d="M73.855 42.53c-3.92-.312-6.599-5.877-4.369-9.26 3.839-5.825 19.122-9.749 21.046-4.579S80.522 43.06 73.855 42.53" style="fill:#6d6902;fill-opacity:.9254902;stroke:none;stroke-width:0;stroke-linejoin:round;stroke-dasharray:none"/><path d="M75.823 40.451c-5.145 2.87-14.932-1.368-16.174-7.127-2.14-9.915 16.282-24.985 20.309-22.66 4.026 2.324 4.62 24.903-4.135 29.787" style="fill:#77781f;fill-opacity:.9254902;stroke:none;stroke-width:0;stroke-linejoin:round;stroke-dasharray:none"/><path d="M68.054 31.309c.434 3.603-4.042 6.792-7.464 5.225-5.893-2.697-10.068-17.407-7.909-18.5 2.16-1.092 14.634 7.145 15.373 13.275" style="fill:#9b9929;fill-opacity:.9254902;stroke:none;stroke-width:0;stroke-linejoin:round;stroke-dasharray:none"/><path d="M32.732 60.85c3.106 2.41 2.295 8.533-1.426 10.139-6.404 2.765-21.336-2.336-20.109-7.714s16.25-6.525 21.535-2.425" style="fill:#6d6902;fill-opacity:.9254902;stroke:none;stroke-width:0;stroke-linejoin:round;stroke-dasharray:none"/><path d="M29.946 61.508c5.877.422 11.736 9.334 9.616 14.831-3.65 9.464-27.319 11.962-29.41 7.81s9.795-23.358 19.794-22.64" style="fill:#77781f;fill-opacity:.9254902;stroke:none;stroke-width:0;stroke-linejoin:round;stroke-dasharray:none"/><path d="M31.428 73.414c1.613-3.25 7.105-3.463 9.108-.276 3.447 5.488-1.129 20.077-3.534 19.807s-8.317-14-5.574-19.53" style="fill:#9b9929;fill-opacity:.9254902;stroke:none;stroke-width:0;stroke-linejoin:round;stroke-dasharray:none"/><path d="M56.271 76.6c-1.843-7.178 6.38-17.79 13.737-17.5 12.667.499 25.062 27.703 20.977 31.887S59.408 88.814 56.27 76.6" style="fill:#77781f;fill-opacity:.9254902;stroke:none;stroke-width:0;stroke-linejoin:round;stroke-dasharray:none"/><path d="M69.785 69.988c-4.494-.6-6.935-7.062-3.957-10.747 5.126-6.344 24.235-6.825 24.874-3.848s-13.27 15.615-20.917 14.595" style="fill:#9b9929;fill-opacity:.9254902;stroke:none;stroke-width:0;stroke-linejoin:round;stroke-dasharray:none"/><path d="M43.494 23.92c1.552 7.247-7.092 17.52-14.433 16.932C16.425 39.842 5.14 12.16 9.391 8.143c4.25-4.015 31.463 3.447 34.103 15.777" style="fill:#77781f;fill-opacity:.9254902;stroke:none;stroke-width:0;stroke-linejoin:round;stroke-dasharray:none"/><path d="M29.724 29.982c4.467.78 6.645 7.336 3.52 10.898-5.378 6.131-24.491 5.84-25.009 2.84s13.89-15.066 21.49-13.738" style="fill:#9b9929;fill-opacity:.9254902;stroke:none;stroke-width:0;stroke-linejoin:round;stroke-dasharray:none"/></svg>
